static/assets/img/icons/theme/cooking/chef.svg

<svg height="24" viewBox="0 0 24 24" width="24" xmlns="http://www.w3.org/2000/svg"><g fill="none" fill-rule="evenodd"><path d="m0 0h24v24h-24z" opacity="0"/><g fill="#000"><rect height="2" opacity=".3" rx="1" width="14" x="5" y="20"/><path d="m5 12.8739825c-1.72522721-.4440428-3-2.0101431-3-3.8739825 0-2.209139 1.790861-4 4-4 .11332888 0 .22555698.00471299.33649899.01395368.81972009-2.33767076 3.04585212-4.01395368 5.66350101-4.01395368 2.6176489 0 4.8437809 1.67628292 5.663501 4.01395368.110942-.00924069.2231701-.01395368.336499-.01395368 2.209139 0 4 1.790861 4 4 0 1.8638394-1.2747728 3.4299397-3 3.8739825v4.1260175c0 .5522847-.4477153 1-1 1h-12c-.55228475 0-1-.4477153-1-1z"/></g></g></svg>

<svg width="24px" height="24px" viewBox="0 0 24 24" version="1.1" xmlns="http://www.w3.org/2000/svg" xmlns:xlink="http://www.w3.org/1999/xlink">
    <title>Icon For Chef</title>
    <g stroke="none" stroke-width="1" fill="none" fill-rule="evenodd">
        <rect opacity="0" x="0" y="0" width="24" height="24"></rect>
        <rect fill="#000000" opacity="0.3" x="5" y="20" width="14" height="2" rx="1"></rect>
        <path d="M5,12.8739825 C3.27477279,12.4299397 2,10.8638394 2,9 C2,6.790861 3.790861,5 6,5 C6.11332888,5 6.22555698,5.00471299 6.33649899,5.01395368 C7.15621908,2.67628292 9.38235111,1 12,1 C14.6176489,1 16.8437809,2.67628292 17.663501,5.01395368 C17.774443,5.00471299 17.8866711,5 18,5 C20.209139,5 22,6.790861 22,9 C22,10.8638394 20.7252272,12.4299397 19,12.8739825 L19,17 C19,17.5522847 18.5522847,18 18,18 L6,18 C5.44771525,18 5,17.5522847 5,17 L5,12.8739825 Z" fill="#000000"></path>
    </g>
</svg>
